X: 24723
T: Mad Alchemist, The
R: jig
M: 6/8
K: Edorian
|:eBB dBB|eBA GFE|eBB dBB|e2f gfg|
eBB dBB|eBA GFE|eBB dBB|ABc ~d3:|
|:EFG EFG|ABc ~d3|EFG EFG|A2B AGF|
EFG EFG|ABc ~d3|e2B ABc|1 d2B AGF:|2 d2B AB/c/d||

